build/img/icons/✍️ - Option-1.svg

<svg width="28" height="13" viewBox="0 0 28 13" fill="none" xmlns="http://www.w3.org/2000/svg">
<path d="M0.204545 12H7.54545V10.75H2.13636V10.6591L4.75 7.86364C6.75 5.72159 7.34091 4.72159 7.34091 3.43182C7.34091 1.63636 5.88636 0.204545 3.84091 0.204545C1.80114 0.204545 0.25 1.59091 0.25 3.63636H1.59091C1.59091 2.3125 2.44886 1.43182 3.79545 1.43182C5.05682 1.43182 6.02273 2.20455 6.02273 3.43182C6.02273 4.50568 5.39205 5.30114 4.04545 6.77273L0.204545 10.9773V12ZM13.4475 12.1591C16.0157 12.1591 17.493 9.98295 17.493 6.18182C17.493 2.40909 15.993 0.204545 13.4475 0.204545C10.902 0.204545 9.40205 2.40909 9.40205 6.18182C9.40205 9.98295 10.8793 12.1591 13.4475 12.1591ZM13.4475 10.9091C11.7543 10.9091 10.7657 9.21023 10.7657 6.18182C10.7657 3.15909 11.7657 1.43182 13.4475 1.43182C15.1293 1.43182 16.1293 3.15909 16.1293 6.18182C16.1293 9.21023 15.1407 10.9091 13.4475 10.9091ZM23.2075 12.1591C25.7757 12.1591 27.253 9.98295 27.253 6.18182C27.253 2.40909 25.753 0.204545 23.2075 0.204545C20.662 0.204545 19.162 2.40909 19.162 6.18182C19.162 9.98295 20.6393 12.1591 23.2075 12.1591ZM23.2075 10.9091C21.5143 10.9091 20.5257 9.21023 20.5257 6.18182C20.5257 3.15909 21.5257 1.43182 23.2075 1.43182C24.8893 1.43182 25.8893 3.15909 25.8893 6.18182C25.8893 9.21023 24.9007 10.9091 23.2075 10.9091Z" fill="#4F4F4F"/>
</svg>

<svg viewBox="0 0 28 13" fill="none" xmlns="http://www.w3.org/2000/svg"><path d="M.205 12h7.34v-1.25H2.136v-.09L4.75 7.863c2-2.142 2.59-3.142 2.59-4.432 0-1.796-1.454-3.227-3.5-3.227C1.802.205.25 1.59.25 3.636h1.34c0-1.324.859-2.204 2.205-2.204 1.262 0 2.228.773 2.228 2 0 1.074-.63 1.87-1.978 3.34l-3.84 4.205V12zm13.242.16c2.569 0 4.046-2.177 4.046-5.978 0-3.773-1.5-5.977-4.045-5.977-2.546 0-4.046 2.204-4.046 5.977 0 3.801 1.477 5.977 4.046 5.977zm0-1.25c-1.693 0-2.681-1.7-2.681-4.728 0-3.023 1-4.75 2.681-4.75 1.682 0 2.682 1.727 2.682 4.75 0 3.028-.988 4.727-2.682 4.727zm9.76 1.25c2.569 0 4.046-2.177 4.046-5.978 0-3.773-1.5-5.977-4.046-5.977-2.545 0-4.045 2.204-4.045 5.977 0 3.801 1.477 5.977 4.046 5.977zm0-1.25c-1.693 0-2.681-1.7-2.681-4.728 0-3.023 1-4.75 2.681-4.75 1.682 0 2.682 1.727 2.682 4.75 0 3.028-.988 4.727-2.681 4.727z" fill="#4F4F4F"/></svg>
